X:566
T:This is Not My Sweetheart.
T:ni sise mo .muirnin
N:Moderate" "Collected from J. O'Neill"
B:O'Neill's 566
Z:Transcribed by J.B. Walsh walsh@math.ubc.ca
Z:Related to Scots reel High Road to Linton
M:C
L:1/8
<START_ANN> %Q:90 <END_ANN>
K:C
G|EGGA c2 cG|A/B/c GE GFDDG|EGGA c2 ge|cAGF EC C:|
G|EGGc AcGE|FAGC B,DDG|EGGc AcGE|FAGF ECCG|
EGGc AcGE|FAGC B,DDG|EGGA c2 ge|cAGF EC C||
